img/ggl.svg

<svg width="42" height="40" viewBox="0 0 42 40" fill="none" xmlns="http://www.w3.org/2000/svg">
<rect opacity="0.1" width="42" height="40" rx="20" fill="#5A7184"/>
<path d="M28.9583 20.5208C28.9583 20.0208 28.8958 19.6458 28.8333 19.2395H21.4583V21.8958H25.8333C25.6771 23.052 24.5208 25.2395 21.4583 25.2395C18.8021 25.2395 16.6458 23.052 16.6458 20.3333C16.6458 15.9895 21.7708 13.9895 24.5208 16.6458L26.6458 14.6145C25.3021 13.3645 23.5208 12.5833 21.4583 12.5833C17.1458 12.5833 13.7083 16.052 13.7083 20.3333C13.7083 24.6458 17.1458 28.0833 21.4583 28.0833C25.9271 28.0833 28.9583 24.9583 28.9583 20.5208Z" fill="#5A7184"/>
</svg>

<svg width="42" height="40" fill="none" xmlns="http://www.w3.org/2000/svg"><rect opacity=".1" width="42" height="40" rx="20" fill="#5A7184"/><path d="M28.958 20.52c0-.5-.062-.874-.125-1.28h-7.375v2.656h4.375c-.156 1.156-1.312 3.343-4.375 3.343-2.656 0-4.812-2.187-4.812-4.906 0-4.343 5.125-6.343 7.875-3.687l2.125-2.032a7.516 7.516 0 0 0-5.188-2.03 7.729 7.729 0 0 0-7.75 7.75 7.709 7.709 0 0 0 7.75 7.75c4.47 0 7.5-3.126 7.5-7.563Z" fill="#5A7184"/></svg>
